static/assets/img/icons/theme/files/compiled-file.svg

<svg height="24" viewBox="0 0 24 24" width="24" xmlns="http://www.w3.org/2000/svg"><g fill="none" fill-rule="evenodd"><path d="m0 0h24v24h-24z" opacity="0"/><g fill="#000"><path d="m5.85714286 2h7.87926854c.3546848 0 .6978952.12568431.9686994.35473959l4.7635886 4.02920201c.3369538.28500673.5313006.70393663.5313006 1.14526041v12.55413129c0 1.7905418-.0204479 1.9166667-1.8571429 1.9166667h-12.28571424c-1.83669499 0-1.85714286-.1261249-1.85714286-1.9166667v-16.16666663c0-1.79054178.02044787-1.91666667 1.85714286-1.91666667z" fill-rule="nonzero" opacity=".3"/><rect height="3.142857" opacity=".3" rx=".75" transform="matrix(.70710678 -.70710678 .70710678 .70710678 -5.94373 9.904762)" width="3.142857" x="7.412812" y="10.555669"/><rect height="3.142857" opacity=".3" rx=".75" transform="matrix(.70710678 -.70710678 .70710678 .70710678 -4.102687 14.349433)" width="3.142857" x="13.698526" y="10.555669"/><rect height="3.142857" rx=".75" transform="matrix(.70710678 -.70710678 .70710678 .70710678 -7.245544 13.04762)" width="3.142857" x="10.555669" y="13.698526"/><rect height="3.142857" rx=".75" transform="matrix(.70710678 -.70710678 .70710678 .70710678 -2.800872 11.206576)" width="3.142857" x="10.555669" y="7.412812"/></g></g></svg>

<svg width="24px" height="24px" viewBox="0 0 24 24" version="1.1" xmlns="http://www.w3.org/2000/svg" xmlns:xlink="http://www.w3.org/1999/xlink">
    <title>Icon For Compiled-file</title>
    <g stroke="none" stroke-width="1" fill="none" fill-rule="evenodd">
        <polygon points="0 0 24 0 24 24 0 24" opacity="0"></polygon>
        <path d="M5.85714286,2 L13.7364114,2 C14.0910962,2 14.4343066,2.12568431 14.7051108,2.35473959 L19.4686994,6.3839416 C19.8056532,6.66894833 20,7.08787823 20,7.52920201 L20,20.0833333 C20,21.8738751 19.9795521,22 18.1428571,22 L5.85714286,22 C4.02044787,22 4,21.8738751 4,20.0833333 L4,3.91666667 C4,2.12612489 4.02044787,2 5.85714286,2 Z" fill="#000000" fill-rule="nonzero" opacity="0.3"></path>
        <rect fill="#000000" opacity="0.3" transform="translate(8.984240, 12.127098) rotate(-45.000000) translate(-8.984240, -12.127098) " x="7.41281179" y="10.5556689" width="3.14285714" height="3.14285714" rx="0.75"></rect>
        <rect fill="#000000" opacity="0.3" transform="translate(15.269955, 12.127098) rotate(-45.000000) translate(-15.269955, -12.127098) " x="13.6985261" y="10.5556689" width="3.14285714" height="3.14285714" rx="0.75"></rect>
        <rect fill="#000000" transform="translate(12.127098, 15.269955) rotate(-45.000000) translate(-12.127098, -15.269955) " x="10.5556689" y="13.6985261" width="3.14285714" height="3.14285714" rx="0.75"></rect>
        <rect fill="#000000" transform="translate(12.127098, 8.984240) rotate(-45.000000) translate(-12.127098, -8.984240) " x="10.5556689" y="7.41281179" width="3.14285714" height="3.14285714" rx="0.75"></rect>
    </g>
</svg>
